app/assets/images/heroicons/micro/pause.svg

<svg width="16" height="16" viewBox="0 0 16 16" fill="none" xmlns="http://www.w3.org/2000/svg">
<path d="M4.5 2C4.22386 2 4 2.22386 4 2.5V13.5C4 13.7761 4.22386 14 4.5 14H5.5C5.77614 14 6 13.7761 6 13.5V2.5C6 2.22386 5.77614 2 5.5 2H4.5Z" fill="black"/>
<path d="M10.5 2C10.2239 2 10 2.22386 10 2.5V13.5C10 13.7761 10.2239 14 10.5 14H11.5C11.7761 14 12 13.7761 12 13.5V2.5C12 2.22386 11.7761 2 11.5 2H10.5Z" fill="black"/>
</svg>

<svg xmlns="http://www.w3.org/2000/svg" viewBox="0 0 16 16" fill="currentColor" aria-hidden="true" data-slot="icon">
  <path d="M4.5 2a.5.5 0 0 0-.5.5v11a.5.5 0 0 0 .5.5h1a.5.5 0 0 0 .5-.5v-11a.5.5 0 0 0-.5-.5h-1ZM10.5 2a.5.5 0 0 0-.5.5v11a.5.5 0 0 0 .5.5h1a.5.5 0 0 0 .5-.5v-11a.5.5 0 0 0-.5-.5h-1Z"/>
</svg>
